public/images/dar-logo-blue.svg

<svg width="315" height="145" viewBox="0 0 315 145" fill="none" xmlns="http://www.w3.org/2000/svg">
<path d="M81.9403 -9.96506e-05H107.976V141.277H81.9403V129.37C74.271 139.192 63.3724 144.103 49.2447 144.103C35.6551 144.103 24.0166 138.99 14.329 128.764C4.77594 118.404 -0.000587096 105.756 -0.000587096 90.8211C-0.000587096 75.8861 4.77594 63.3057 14.329 53.0799C24.0166 42.7195 35.6551 37.5393 49.2447 37.5393C63.3724 37.5393 74.271 42.4504 81.9403 52.2726V-9.96506e-05ZM33.906 111.407C39.288 116.655 46.0155 119.278 54.0885 119.278C62.1615 119.278 68.8217 116.655 74.0692 111.407C79.3166 106.025 81.9403 99.1632 81.9403 90.8211C81.9403 82.479 79.3166 75.6842 74.0692 70.4368C68.8217 65.0548 62.1615 62.3638 54.0885 62.3638C46.0155 62.3638 39.288 65.0548 33.906 70.4368C28.6586 75.6842 26.0348 82.479 26.0348 90.8211C26.0348 99.1632 28.6586 106.025 33.906 111.407ZM208.48 40.3649H234.515V141.277H208.48V129.37C200.676 139.192 189.71 144.103 175.582 144.103C162.127 144.103 150.556 138.99 140.868 128.764C131.315 118.404 126.539 105.756 126.539 90.8211C126.539 75.8861 131.315 63.3057 140.868 53.0799C150.556 42.7195 162.127 37.5393 175.582 37.5393C189.71 37.5393 200.676 42.4504 208.48 52.2726V40.3649ZM160.445 111.407C165.693 116.655 172.353 119.278 180.426 119.278C188.499 119.278 195.159 116.655 200.407 111.407C205.789 106.025 208.48 99.1632 208.48 90.8211C208.48 82.479 205.789 75.6842 200.407 70.4368C195.159 65.0548 188.499 62.3638 180.426 62.3638C172.353 62.3638 165.693 65.0548 160.445 70.4368C155.198 75.6842 152.574 82.479 152.574 90.8211C152.574 99.1632 155.198 106.025 160.445 111.407ZM284.159 57.7218C286.581 51.2634 290.551 46.4196 296.067 43.1904C301.718 39.9612 307.975 38.3466 314.837 38.3466V67.4094C306.898 66.4676 299.767 68.0822 293.443 72.2532C287.254 76.4243 284.159 83.3536 284.159 93.0412V141.277H258.124V40.3649H284.159V57.7218Z" fill="#1C3349"/>
</svg>

<svg xmlns="http://www.w3.org/2000/svg" width="315" height="145" fill="none" viewBox="0 0 315 145"><path fill="#1c3349" d="M81.94 0h26.036v141.277H81.94V129.37q-11.504 14.733-32.695 14.733-20.384 0-34.916-15.339-14.33-15.54-14.33-37.943T14.33 53.08q14.532-15.54 34.916-15.54 21.191 0 32.695 14.733zM33.906 111.407q8.073 7.872 20.183 7.871t19.98-7.871q7.871-8.073 7.871-20.586t-7.87-20.384q-7.872-8.073-19.981-8.073t-20.183 8.073q-7.87 7.87-7.871 20.384 0 12.513 7.871 20.586M208.48 40.365h26.035v100.912H208.48V129.37q-11.706 14.733-32.898 14.733-20.182 0-34.714-15.339-14.33-15.54-14.329-37.943t14.329-37.741q14.532-15.54 34.714-15.54 21.192 0 32.898 14.733zm-48.035 71.042q7.872 7.872 19.981 7.871t19.981-7.871q8.073-8.073 8.073-20.586t-8.073-20.384q-7.872-8.073-19.981-8.073t-19.981 8.073q-7.87 7.87-7.871 20.384 0 12.513 7.871 20.586m123.714-53.685q3.634-9.688 11.908-14.532 8.477-4.843 18.77-4.843v29.062q-11.908-1.412-21.394 4.844-9.284 6.256-9.284 20.788v48.236h-26.035V40.365h26.035z"/></svg>
